X:1
T:Title
%%score { ( 1 4 ) | ( 2 3 ) }
L:1/8
M:2/4
K:F
V:1 treble nm="Grand Piano"
V:4 treble 
V:2 bass 
V:3 bass 
V:1
 z2 z[Q:1/4=90] C | FF [EG][EG] | Ac GC | FF [EG][EG] | A2 cC | FF [EG][EG] | Ac G[EG] | %7
 [Ec][EB] [EG][EA] | F4 | B2 z2 | A2 z2 | G^F Gd | [CEc]4 | [A,CF][A,C] [CEG]C | %14
[M:9/16] Ac/-c/[Dc]-[Dc]/[DGB] |[M:2/4] [CFA][CFA] [B,EG][B,EG] |[M:3/8] [A,F]3 |] %17
V:2
 z2 z [F,A,] | [F,A,C][F,A,C] [C,C][C,C] | [F,CF][A,CF] [CE][K:bass]C, | %3
 [D,F,A,][D,A,D] [C,C][C,C] | C2 z2 | [F,A,C][F,A,C] [C,C][C,C] | [F,CF][A,CF] [CE][K:bass][C,C] | %7
 [C,G,][C,G,] [C,B,][C,C] | [F,A,]4 | [B,,F,][B,,F,] .[B,,F,B,]2 | [F,A,C][F,A,] .[F,A,]2 | %11
 [G,CE][G,CE] [G,=B,F][G,B,F] | C,4 | F,F, C,C, | %14
[M:9/16] [F,CF][F,A,_E]/-[F,A,E]/[B,,G,]-[B,,G,]/B,, |[M:2/4] C,C, C,C, |[M:3/8] F,3 |] %17
V:3
 x4 | x4 | x3[K:bass] x | x4 | [F,F]2- [F,A,F][F,A,] | x4 | x3[K:bass] x | x4 | x4 | x4 | x4 | x4 | %12
 x4 | x4 |[M:9/16] x9/2 |[M:2/4] x4 |[M:3/8] x3 |] %17
V:4
 x4 | x4 | x4 | x4 | x4 | x4 | x4 | x4 | x4 | DD .D2 | z C .C2 | x4 | x4 | x4 |[M:9/16] x9/2 | %15
[M:2/4] x4 |[M:3/8] x3 |] %17

